www/assets/icons/fiber_pin.svg

<svg xmlns="http://www.w3.org/2000/svg" width="24" height="24" viewBox="0 0 24 24" fill='currentColor'><path d="M5.5 10.5h2v1h-2zM20 4H4c-1.11 0-1.99.89-1.99 2L2 18c0 1.11.89 2 2 2h16c1.11 0 2-.89 2-2V6c0-1.11-.89-2-2-2M9 11.5c0 .85-.65 1.5-1.5 1.5h-2v2H4V9h3.5c.85 0 1.5.65 1.5 1.5zm3.5 3.5H11V9h1.5zm7.5 0h-1.2l-2.55-3.5V15H15V9h1.25l2.5 3.5V9H20z"/></svg>

<svg width="24" height="24" viewBox="0 0 24 24" xmlns="http://www.w3.org/2000/svg" fill='currentColor'><path d="M5.5 10.5H7.5V11.5H5.5V10.5ZM20 4H4C2.89 4 2.01 4.89 2.01 6L2 18C2 19.11 2.89 20 4 20H20C21.11 20 22 19.11 22 18V6C22 4.89 21.11 4 20 4ZM9 11.5C9 12.35 8.35 13 7.5 13H5.5V15H4V9H7.5C8.35 9 9 9.65 9 10.5V11.5ZM12.5 15H11V9H12.5V15ZM20 15H18.8L16.25 11.5V15H15V9H16.25L18.75 12.5V9H20V15Z"/></svg>
